X:1
T:Title
%%score { ( 1 3 5 ) | ( 2 4 ) }
L:1/8
M:4/4
K:Ab
V:1 treble nm="Grand Piano"
V:3 treble 
V:5 treble 
V:2 bass 
V:4 bass 
V:1
 z4 z2[Q:1/4=94] [CE]2 | [Ec]3 [Ec] [Fd]>[Ec] [DB]>[C=A] | B2 F4 F2 | G3 F E>F G>F | %4
[M:3/4] [_CF]2 [=CE]4 |[M:1/4] [CE]2 |[M:4/4] [Ec]3 [Ec] [Fd]>[Ec] [DB]>[C=A] | B2 F4 F2 | %8
 E3 A [Ec]>[Fd] [Ec]>[DB] |[M:3/4] [A,CA]6 |[M:11/32] d/4-d/4-d/4-d/4-d/4-d/4-d/-<d/ z/4 | %11
[M:35/32] (9:8:15c-c3/32B-B3/32-[G,B]3/2-[G,B]/8-[G,B-]/64[G,B]/-[G,B-]3/64[G,B]-[G,B-]3/32[G,B]-[G,B]3/32 c2- c/- z3/64 (9:8:4c3/16-c3/64B/-B3/64 | %12
[M:4/4] z[K:bass] A3- A2[K:treble] z2 | F>=E F>G [=DA]>[Dc] [DB]>[D=A] | %14
[M:35/32] B3/2-B/4- B4- B/4d-(3:2:4d3/2-d/4c3/4-c/8 | %15
[M:4/4] (9:8:9cB- [G,B-]2 [G,B-]/ [G,B-][G,B-][Bc-]/c3/2B/ | %16
[M:17/16] (9:8:18B-B/16A-A/16-[_GA]-[GA]/-[GA-]3/32[GA]/-[GA-]/32[FA]-[FA]/-[FA-]3/32[FA]/-[FA]-[FA]3/32[FA]-[FA]/-[FA]3/32 z/32 (9:8:2[=EB]/-[EB]/32 | %17
[M:35/32] z3/2 z/4 z3/2 z/4 z2 z/ c2- c/4 z/ |[M:3/4] [CA]6 |] %19
V:2
 z4 z2 [A,,A,]2 | [A,,A,]3 [A,,A,] [A,,A,]>[A,,A,] [A,,A,]>[A,,A,] | [D,F,D]2 [D,A,D]4 [D,B,D]2 | %3
 [E,B,D]3 [E,A,D] [E,G,D]>[E,A,D] [E,B,D]>[E,G,D] |[M:3/4] [A,,A,]6 |[M:1/4] [A,,A,]2 | %6
[M:4/4] [A,,A,]3 [A,,A,] [A,,A,]>[A,,A,] [A,,A,]>[A,,A,] | [D,F,D]2 [D,A,D]4 [=D,A,_C]2 | %8
 [E,A,C]3 [C,A,C] [A,,A,]>[D,A,] [E,A,]>[E,G,] |[M:3/4] A,,6 | %10
[M:11/32][K:treble] F/4-F/4-F/4-F/4-F/4-F/4-F/-<F/ z/4 | %11
[M:35/32] (9:8:15E-E3/32[K:bass]D-D3/32-[E,D]3/2-[E,D]/8-[E,D-]/64[E,D]/-[E,D-]3/64[E,D]-[E,D-]3/32[E,D]-[E,D]3/32[K:treble] E2- E/- z3/64 (9:8:4E3/16-E3/64D/-D3/64 | %12
[M:4/4] z[K:bass] C3- C2 z2 | [D,A,D]>[D,G,D] [D,A,D]>[D,G,D] [B,,F,]>[B,,B,] [B,,B,]>[B,,B,] | %14
[M:35/32] [E,G,D]3/2-[E,G,D]/4- [E,G,D]4- [E,G,D]/4[K:treble]F-(3:2:4F3/2-F/4E3/4-E/8 | %15
[M:4/4] (9:8:9E[K:bass]D- [E,D-]2 [E,D-]/ [E,D-][E,D-][DE-]/E3/2[K:treble]=E/ | %16
[M:17/16] (9:8:18F-F/16F-F/16[K:bass][E,C]-[E,C]/-[E,C]3/32[E,C]/-[E,C]/32[D,D]-[D,D]/-[D,D]3/32[D,D]/-[D,D]-[D,D]3/32[D,A,]-[D,A,]/-[D,A,]3/32 z/40 (9:8:2[D,A,]/-[D,A,]/32 | %17
[M:35/32] [E,A,]2- [E,A,]/4 z z/4 (3:2:4[E,A,E]3/4-[E,A,E]/8[E,A,E]3/2-[E,A,E]/4-[E,A,-E-]/4[A,D-E]/4D/4-[DE-]/4E3/2-E/4-[E,-G,-D-E]/4[E,G,D]/ | %18
[M:3/4] [A,,A,]6 |] %19
V:3
 x8 | x8 | x8 | x8 |[M:3/4] x6 |[M:1/4] x2 |[M:4/4] x8 | x8 | x8 |[M:3/4] x6 | %10
[M:11/32] z/4 z/4 z/4 z/4 z/4 z/4 z/ c3/4 |[M:35/32] x8 | %12
[M:4/4] .B2[K:bass] E,>E, E,E,[K:treble] [CA]>[EG] | x8 |[M:35/32] x35/4 |[M:4/4] x8 | %16
[M:17/16] x8 |[M:35/32] [Ec]2- [Ec]/4 z z/4 (3:2:4c3/4-c/8c3/2-c/4-c z3/2 z/4 B3/4 |[M:3/4] x6 |] %19
V:4
 x8 | x8 | x8 | x8 |[M:3/4] x6 |[M:1/4] x2 |[M:4/4] x8 | x8 | x8 |[M:3/4] x6 | %10
[M:11/32][K:treble] z/4 z/4 z/4 z/4 z/4 z/4 z/ E3/4 | %11
[M:35/32] x41/40[K:bass] x311/64[K:treble] x119/40 | %12
[M:4/4] .D2[K:bass] A,,>A,, A,,A,, [A,,E,]>[C,A,] | x8 |[M:35/32] x6[K:treble] x11/4 | %15
[M:4/4] x57/64[K:bass] x20/3[K:treble] x29/64 |[M:17/16] x61/32[K:bass] x6 | %17
[M:35/32] z2 [E,G,]3/2-[E,G,]/4 z3/2 z/4 [E,G,]/ [E,G,]2 z3/4 |[M:3/4] x6 |] %19
V:5
 x8 | x8 | x8 | x8 |[M:3/4] x6 |[M:1/4] x2 |[M:4/4] x8 | x8 | x8 |[M:3/4] x6 |[M:11/32] x11/4 | %11
[M:35/32] x8 |[M:4/4] x[K:bass] x5[K:treble] x2 | x8 |[M:35/32] x35/4 |[M:4/4] x8 |[M:17/16] x8 | %17
[M:35/32] z2 [Fd]3/2-[Fd]/4 z3/2 z/4 B3/4 z2 z/ |[M:3/4] x6 |] %19

